style-guide/assets/xd-icons-H3.svg

<?xml version="1.0" encoding="UTF-8"?>
<svg width="24px" height="24px" viewBox="0 0 24 24" version="1.1" xmlns="http://www.w3.org/2000/svg" xmlns:xlink="http://www.w3.org/1999/xlink">
    <!-- Generator: Sketch 51.3 (57544) - http://www.bohemiancoding.com/sketch -->
    <title>H3</title>
    <desc>Created with Sketch.</desc>
    <defs>
        <path d="M9,2 C8.447,2 8,2.447 8,3 L8,11 L2,11 L2,3 C2,2.447 1.553,2 1,2 C0.447,2 0,2.447 0,3 L0,21 C0,21.553 0.447,22 1,22 C1.553,22 2,21.553 2,21 L2,13 L8,13 L8,21 C8,21.553 8.447,22 9,22 C9.553,22 10,21.553 10,21 L10,3 C10,2.447 9.553,2 9,2 M19.0947,8.3203 L23.7067,3.7073 C23.9927,3.4213 24.0787,2.9913 23.9237,2.6173 C23.7697,2.2443 23.4047,2.0003 22.9997,2.0003 L14.9997,2.0003 C14.4477,2.0003 13.9997,2.4473 13.9997,3.0003 C13.9997,3.5523 14.4477,4.0003 14.9997,4.0003 L20.5857,4.0003 L16.2927,8.2933 C16.1967,8.3883 16.1237,8.5003 16.0747,8.6193 C16.0277,8.7353 15.9997,8.8633 15.9997,8.9973 L15.9997,9.0033 C15.9997,9.1363 16.0277,9.2643 16.0747,9.3813 C16.1237,9.5003 16.1967,9.6113 16.2927,9.7073 C16.3897,9.8023 16.4997,9.8763 16.6187,9.9243 C16.7357,9.9723 16.8637,10.0003 16.9967,10.0003 L16.9997,10.0003 C19.7567,10.0003 21.9997,12.2433 21.9997,15.0003 C21.9997,17.7573 19.7567,20.0003 16.9997,20.0003 C16.4267,20.0003 15.8687,19.9023 15.3427,19.7113 C14.8237,19.5233 14.2497,19.7873 14.0607,20.3063 C13.8707,20.8263 14.1387,21.4003 14.6577,21.5903 C15.4037,21.8613 16.1917,22.0003 16.9997,22.0003 C20.8597,22.0003 23.9997,18.8593 23.9997,15.0003 C23.9997,11.8693 21.9347,9.2123 19.0947,8.3203" id="path-1"></path>
    </defs>
    <g id="H3" stroke="none" stroke-width="1" fill="none" fill-rule="evenodd">
        <mask id="mask-2" fill="white">
            <use xlink:href="#path-1"></use>
        </mask>
        <use id="icons/24px/H3" fill="#000000" xlink:href="#path-1"></use>
    </g>
</svg>

<svg viewBox="0 0 24 24" xmlns="http://www.w3.org/2000/svg">
    <path d="M9 2a1 1 0 0 0-1 1v8H2V3a1 1 0 1 0-2 0v18a1 1 0 1 0 2 0v-8h6v8a1 1 0 1 0 2 0V3a1 1 0 0 0-1-1m10.095 6.32l4.612-4.613A1 1 0 0 0 23 2h-8a1 1 0 1 0 0 2h5.586l-4.293 4.293a.988.988 0 0 0-.293.704v.006a.998.998 0 0 0 .997.997H17c2.757 0 5 2.243 5 5s-2.243 5-5 5a4.842 4.842 0 0 1-1.657-.289 1 1 0 1 0-.685 1.88A6.84 6.84 0 0 0 17 22c3.86 0 7-3.142 7-7 0-3.132-2.065-5.789-4.905-6.68"/>
</svg>
